build/category/TabletSolid.svg

<svg xmlns="http://www.w3.org/2000/svg" fill="none" viewBox="0 0 24 24" focusable="false"><path d="M0 0H24V24H0z"/><path fill="#74767B" fill-rule="evenodd" d="M16 3C17.6569 3 19 4.34315 19 6L19 18C19 19.6569 17.6569 21 16 21L8 21C6.34315 21 5 19.6569 5 18L5 6C5 4.34315 6.34315 3 8 3L16 3ZM17.6736 18.3L6.32639 18.3C6.46808 19.0958 7.16348 19.7 8 19.7L16 19.7C16.8365 19.7 17.5319 19.0958 17.6736 18.3ZM16 4.3C16.8365 4.3 17.5319 4.90417 17.6736 5.69995L6.3264 5.69995C6.46811 4.90417 7.1635 4.3 8 4.3L16 4.3Z"/></svg>

<svg xmlns="http://www.w3.org/2000/svg" fill="none" viewBox="0 0 24 24" focusable="false"><path fill="#74767B" fill-rule="evenodd" d="M16 3c1.65 0 3 1.34 3 3v12c0 1.65-1.35 3-3 3H8c-1.66 0-3-1.35-3-3V6c0-1.66 1.34-3 3-3zm1.67 15.29H6.32c.14.8.84 1.41 1.68 1.41h8c.83 0 1.53-.61 1.67-1.41M16 4.29c.83 0 1.53.61 1.67 1.4H6.32c.14-.79.84-1.4 1.68-1.4z"/></svg>
